alura/assets/api/cursos/excel-funcoes.svg

<svg width="50" height="50" viewBox="0 0 50 50" fill="none" xmlns="http://www.w3.org/2000/svg">
<path d="M4.8 45.5L47 30.2V8.4C47 5.4 44.6 3 41.6 3H8.4C5.5 3 3 5.5 3 8.4V41.5C3 43.1 3.7 44.5 4.8 45.5Z" fill="#E589EF"/>
<path d="M45.2 4.5C44.2 3.6 43 3 41.6 3H8.4C5.5 3 3 5.5 3 8.4V19.8L45.2 4.5Z" fill="#F799FF"/>
<path d="M41.5 1.90002H8.40005C4.80005 1.90002 1.80005 4.90002 1.80005 8.50002V41.6C1.80005 45.2 4.80005 48.2 8.40005 48.2H25C25.6 48.2 26.2001 47.7 26.2001 47C26.2001 46.3 25.7 45.8 25 45.8H18V35.7H19.8L21.7001 32.7H28L29.9 35.7H35L33 32.7H41.8C42 32.7 42.1 32.5 42.1 32.4C42.1 32.3 41.9 32 41.8 32H32.7001V18H45.8V30.2C45.8 30.8 46.3 31.4 47 31.4C47.7 31.4 48.2001 30.9 48.2001 30.2V8.40002C48.1001 4.80002 45.2 1.90002 41.5 1.90002ZM27.8 24.9L32 18.3V31.2L27.8 24.9ZM4.20005 18H17.3V32H4.20005V18ZM18 31V18.3L22.1 24.7L18 31ZM29.6 14.3L27.8 17.3H22.3L20.5 14.3H18V4.20002H32V14.3H29.6ZM27.4 18L25.1 22L22.7001 18H27.4ZM8.40005 4.20002H17.3V14.3H15.4L17.3 17.2V17.3H4.20005V8.40002C4.20005 6.10002 6.10005 4.20002 8.40005 4.20002ZM17.3 45.8H8.40005C6.10005 45.8 4.20005 43.9 4.20005 41.6V32.7H17L15.1 35.7H17.4V45.8H17.3ZM22.2001 32L24.9 27.6L27.6 32H22.2001ZM32.7001 17.3V17.1L34.5 14.2H32.7001V4.20002H41.6C43.9 4.20002 45.8 6.10002 45.8 8.40002V17.3H32.7001Z" fill="#031326"/>
</svg>

<svg xmlns="http://www.w3.org/2000/svg" id="Layer_1" x="0" y="0" version="1.1" viewBox="0 0 50 50" xml:space="preserve"><style>.st0{fill:#e589ef}.st1{fill:#f799ff}</style><path d="M4.8 45.5L47 30.2V8.4c0-3-2.4-5.4-5.4-5.4H8.4C5.5 3 3 5.5 3 8.4v33.1c0 1.6.7 3 1.8 4z" class="st0"/><path d="M45.2 4.5C44.2 3.6 43 3 41.6 3H8.4C5.5 3 3 5.5 3 8.4v11.4L45.2 4.5z" class="st1"/><path fill="#031326" d="M41.5 1.9H8.4c-3.6 0-6.6 3-6.6 6.6v33.1c0 3.6 3 6.6 6.6 6.6H25c.6 0 1.2-.5 1.2-1.2s-.5-1.2-1.2-1.2h-7V35.7h1.8l1.9-3H28l1.9 3H35l-2-3h8.8c.2 0 .3-.2.3-.3s-.2-.4-.3-.4h-9.1V18h13.1v12.2c0 .6.5 1.2 1.2 1.2s1.2-.5 1.2-1.2V8.4c-.1-3.6-3-6.5-6.7-6.5zm-13.7 23l4.2-6.6v12.9l-4.2-6.3zM4.2 18h13.1v14H4.2V18zM18 31V18.3l4.1 6.4L18 31zm11.6-16.7l-1.8 3h-5.5l-1.8-3H18V4.2h14v10.1h-2.4zM27.4 18l-2.3 4-2.4-4h4.7zM8.4 4.2h8.9v10.1h-1.9l1.9 2.9v.1H4.2V8.4c0-2.3 1.9-4.2 4.2-4.2zm8.9 41.6H8.4c-2.3 0-4.2-1.9-4.2-4.2v-8.9H17l-1.9 3h2.3v10.1zM22.2 32l2.7-4.4 2.7 4.4h-5.4zm10.5-14.7v-.2l1.8-2.9h-1.8v-10h8.9c2.3 0 4.2 1.9 4.2 4.2v8.9H32.7z"/><circle cx="-204.9" cy="37.2" r="20" fill="#fdcf72"/><circle cx="-184.9" cy="37.2" r="20" fill="#fcc34f"/><circle cx="-95.2" cy="12.6" r="20" class="st1"/><circle cx="-75.2" cy="12.6" r="20" class="st0"/><circle cx="-204.9" cy="88.1" r="20" fill="#00dffc"/><circle cx="-184.9" cy="88.1" r="20" fill="#00c8e2"/></svg>
